X:1
T:Title
%%score { ( 1 3 ) | 2 }
L:1/8
Q:1/4=100
M:4/4
K:G
V:1 treble nm="Grand Piano"
V:3 treble 
V:2 bass 
V:1
 [DB]>[Ec] [DB]>[CA] [B,G]4 | [EG]>[EA] [EG][CE] [CE] [B,D]3 | G>G GA Bded | B2 AG A4 | %4
w: John~R.~Sweney * * * *||||
 [DB]>[Ec] [DB]>[CA] [B,G]4 | [EG]>[EA] [EG][CE] [CE] [B,D]3 | G>G AB [Gc][Gd][Ge][EAc] | %7
w: |||
 [DGB]2 [CFA]2 [B,G]4 | [FA]3 [=F^G] [^FA]2 D2 | B3 A B d3 | e2 ee d2 dd | ^c3 [Gc] d2 =c2 | %12
w: |||||
 [DB]>[Ec] [DB]>[CA] [B,G]4 | [EG]>[EA] [EG][CE] [CE] [B,D]3 | G>G AB [Gc][Gd][Ge][EAc] | %15
w: |||
[M:8/4] [DGB]2 [CFA]2 [B,G]4 z8 |] %16
w: |
V:2
 [G,,G,]>[G,,G,] [G,,G,]>[G,,G,] [G,,G,]4 | [C,G,]>[C,G,] [C,G,][C,G,] [G,,G,] [G,,G,]3 | %2
 [G,B,D]>[G,B,D] [G,B,D][G,CD] [G,DG][G,B,G][G,CG][G,B,G] | %3
 [G,DG]2[K:bass] [F,A,D][E,A,^C] [D,F,D]4 | [G,,G,]>[G,,G,] [G,,G,]>[G,,G,] [G,,G,]4 | %5
 [C,G,]>[C,G,] [C,G,][C,G,] [G,,G,] [G,,G,]3 | %6
 [G,B,D]>[G,B,D] [F,A,D][=F,G,D] [E,G,][D,B,][C,C]C, | D,2 D,2 G,4 | [D,D]3 [D,D] [D,D]2 [F,A,]2 | %9
 [G,D]3 [G,DF] [G,DG] [G,B,G]3 | [CG]2 [CG][CG] [B,DG]2 [B,DG][B,DG] | %11
 [A,EG]3[K:bass] [A,,A,] [D,A,]4 | [G,,G,]>[G,,G,] [G,,G,]>[G,,G,] [G,,G,]4 | %13
 [C,G,]>[C,G,] [C,G,][C,G,] [G,,G,] [G,,G,]3 | %14
 [G,B,D]>[G,B,D] [F,A,D][=F,G,D] [E,G,][D,B,][C,C]C, |[M:8/4] D,2 D,2 G,4 z8 |] %16
V:3
 x8 | x8 | x8 | x8 | x8 | x8 | x8 | x8 | x8 | x8 | x8 | z4 F4 | x8 | x8 | x8 |[M:8/4] x16 |] %16

